X:201 
T:Taylor's Fancy (slide) 
B:CRE3.055
F:file ID: cre.3/201tayl_f
R:slide (Rogha an TÃÂÃÂÃÂÃÂ¥illiÃÂÃÂÃÂÃÂºra)
N:Also called "Paddy Taylor's".
Q:180
M:12/8
L:1/8
K:D
A2G A2B =c2A AGE|G2E G2A G2E D3|
A2G A2B =c2A A2G|fef g2e d3 d3:|
f2d f2a g2e e2e|d2c d2e d2c A2G|
f2d f2a g2e a3|faf gfe d3 d3:|

%%%

